images/OPTAMO.svg

<svg width="232" height="39" viewBox="0 0 232 39" fill="none" xmlns="http://www.w3.org/2000/svg">
<path d="M19.984 38.816C6.208 38.816 0.64 28.496 0.64 20C0.64 11.792 6.064 1.184 20.464 1.184C32.416 1.184 39.856 8.144 39.856 19.136C39.856 30.128 32.176 38.816 19.984 38.816ZM22 36.416C25.36 36.416 33.136 34.784 33.136 20.912C33.136 10.16 26.944 3.488 19.072 3.488C13.552 3.488 7.264 6.56 7.264 18.512C7.264 28.496 12.784 36.416 22 36.416ZM49.6533 24.224V15.776C49.6533 8.48 49.6533 7.136 49.5573 5.6C49.4613 3.968 49.0773 3.2 47.4933 2.864C47.1093 2.768 46.2933 2.72 45.6213 2.72C45.0933 2.72 44.8053 2.624 44.8053 2.288C44.8053 1.952 45.1413 1.856 45.8613 1.856C48.4053 1.856 51.4293 2 52.7733 2C54.7413 2 57.5253 1.856 59.7333 1.856C65.7333 1.856 67.6533 3.68 68.7573 4.736C69.8133 5.792 71.0613 7.712 71.0613 11.024C71.0613 16.928 66.0693 21.92 59.2533 21.92C59.0133 21.92 58.4853 21.92 58.2453 21.872C58.0053 21.824 57.6693 21.776 57.6693 21.44C57.6693 21.056 58.0053 20.912 59.0133 20.912C61.7013 20.912 65.4453 17.84 65.4453 12.944C65.4453 11.36 65.4453 8.192 62.7573 5.792C61.0293 4.208 58.9173 3.92 57.8133 3.92C57.0933 3.92 56.3733 3.968 55.9413 4.112C55.7013 4.208 55.5573 4.496 55.5573 5.024V24.224C55.5573 28.64 55.5573 32.432 55.7973 34.496C55.9413 35.84 56.2293 36.896 57.6693 37.088C58.3413 37.184 59.3973 37.28 60.1173 37.28C60.6453 37.28 60.8853 37.424 60.8853 37.664C60.8853 38 60.5013 38.144 59.9733 38.144C56.8053 38.144 53.7812 38 52.5333 38C51.4293 38 48.4053 38.144 46.4853 38.144C45.8613 38.144 45.5253 38 45.5253 37.664C45.5253 37.424 45.7173 37.28 46.2933 37.28C47.0133 37.28 47.5893 37.184 48.0213 37.088C48.9813 36.896 49.2213 35.84 49.4133 34.448C49.6533 32.432 49.6533 28.64 49.6533 24.224ZM94.1879 4.544V24.224C94.1879 28.64 94.1879 32.432 94.4279 34.496C94.5719 35.84 94.8599 36.896 96.2999 37.088C96.9719 37.184 98.0279 37.28 98.7479 37.28C99.2759 37.28 99.5159 37.424 99.5159 37.664C99.5159 38 99.1319 38.144 98.6039 38.144C95.4359 38.144 92.4119 38 91.0679 38C89.9639 38 86.9399 38.144 85.0199 38.144C84.3959 38.144 84.0599 38 84.0599 37.664C84.0599 37.424 84.2519 37.28 84.8279 37.28C85.5479 37.28 86.1239 37.184 86.5559 37.088C87.5159 36.896 87.8039 35.84 87.9479 34.448C88.1879 32.432 88.1879 28.64 88.1879 24.224V4.544C86.3639 4.592 83.3879 4.688 81.0359 4.736C78.2519 4.832 77.0999 5.072 76.3799 6.128C75.8999 6.848 75.6599 7.424 75.5639 7.808C75.4679 8.192 75.3239 8.384 75.0359 8.384C74.6999 8.384 74.6039 8.144 74.6039 7.616C74.6039 6.848 75.5159 2.48 75.6119 2.096C75.7559 1.472 75.8999 1.184 76.1879 1.184C76.5719 1.184 77.0519 1.664 78.2519 1.76C79.6439 1.904 81.4679 2 83.0519 2H102.06C103.596 2 104.652 1.856 105.372 1.76C106.092 1.616 106.476 1.52 106.668 1.52C107.004 1.52 107.052 1.808 107.052 2.528C107.052 3.536 106.908 6.848 106.908 8.096C106.86 8.576 106.764 8.864 106.476 8.864C106.092 8.864 105.996 8.624 105.948 7.904C105.948 7.76 105.9 7.52 105.9 7.376C105.804 6.128 104.508 4.784 100.236 4.688C98.9879 4.64 97.0199 4.592 94.1879 4.544ZM126.262 25.616H115.558C115.318 25.616 115.222 25.712 115.126 26L112.534 32.864C112.054 34.064 111.814 35.216 111.814 35.792C111.814 36.656 112.246 37.28 113.734 37.28C113.974 37.28 114.262 37.28 114.454 37.28C115.03 37.28 115.174 37.376 115.174 37.664C115.174 38.048 114.886 38.144 114.358 38.144C112.822 38.144 110.758 38 109.27 38C108.742 38 106.102 38.144 103.606 38.144C102.982 38.144 102.694 38.048 102.694 37.664C102.694 37.376 102.982 37.28 103.366 37.28C103.798 37.28 104.374 37.232 104.758 37.184C106.966 36.896 107.878 35.264 108.838 32.864L120.886 2.72C121.462 1.328 121.798 0.799998 122.23 0.799998C122.614 0.799998 122.95 1.232 123.43 2.336C124.582 4.976 132.262 24.56 135.334 31.856C137.158 36.176 138.55 36.848 139.558 37.088C140.278 37.232 140.998 37.28 141.574 37.28C141.958 37.28 142.198 37.376 142.198 37.664C142.198 38.048 141.766 38.144 139.99 38.144C138.262 38.144 134.422 38.144 130.582 38.048C129.718 38 129.478 37.952 129.478 37.664C129.478 37.424 129.67 37.28 130.15 37.232C130.486 37.136 130.822 36.704 130.582 36.128L126.742 25.952C126.646 25.712 126.502 25.616 126.262 25.616ZM116.518 23.216H125.35C125.59 23.216 125.638 23.072 125.59 22.928L121.27 11.072C121.126 10.64 120.934 10.496 120.742 11.072L116.326 22.88C116.278 23.072 116.326 23.216 116.518 23.216ZM179.824 2.288L184.192 31.952C184.624 34.976 185.104 36.368 186.544 36.8C187.936 37.232 188.896 37.28 189.52 37.28C189.952 37.28 190.288 37.328 190.288 37.616C190.288 38 189.712 38.144 189.04 38.144C187.84 38.144 181.216 38 179.296 37.856C178.192 37.76 177.904 37.616 177.904 37.328C177.904 37.088 178.096 36.944 178.432 36.8C178.72 36.704 178.864 36.08 178.672 34.736L175.744 13.328L165.136 35.408C164.032 37.664 163.792 38.096 163.36 38.096C162.928 38.096 162.448 37.136 161.68 35.696C160.528 33.488 156.736 26.144 156.16 24.8C155.728 23.792 152.704 17.408 151.024 13.808L148.48 33.248C148.384 34.112 148.336 34.736 148.336 35.504C148.336 36.416 148.96 36.848 149.776 37.04C150.64 37.232 151.312 37.28 151.792 37.28C152.176 37.28 152.512 37.376 152.512 37.616C152.512 38.048 152.08 38.144 151.36 38.144C149.344 38.144 147.184 38 146.32 38C145.408 38 143.104 38.144 141.568 38.144C141.088 38.144 140.704 38.048 140.704 37.616C140.704 37.376 140.992 37.28 141.472 37.28C141.856 37.28 142.192 37.28 142.912 37.136C144.256 36.848 144.64 34.976 144.88 33.344L149.632 2.048C149.776 1.232 150.064 0.799998 150.448 0.799998C150.832 0.799998 151.12 1.04 151.744 2.288L164.848 29.36L177.904 1.952C178.288 1.184 178.528 0.799998 178.96 0.799998C179.392 0.799998 179.68 1.28 179.824 2.288ZM212.031 38.816C198.255 38.816 192.687 28.496 192.687 20C192.687 11.792 198.111 1.184 212.511 1.184C224.463 1.184 231.903 8.144 231.903 19.136C231.903 30.128 224.223 38.816 212.031 38.816ZM214.047 36.416C217.407 36.416 225.183 34.784 225.183 20.912C225.183 10.16 218.991 3.488 211.119 3.488C205.599 3.488 199.311 6.56 199.311 18.512C199.311 28.496 204.831 36.416 214.047 36.416Z" fill="#0F85FF"/>
</svg>

<svg xmlns="http://www.w3.org/2000/svg" width="232" height="39" fill="none"><path fill="#0F85FF" d="M19.984 38.816C6.208 38.816.64 28.496.64 20c0-8.208 5.424-18.816 19.824-18.816 11.952 0 19.392 6.96 19.392 17.952s-7.68 19.68-19.872 19.68Zm2.016-2.4c3.36 0 11.136-1.632 11.136-15.504 0-10.752-6.192-17.424-14.064-17.424-5.52 0-11.808 3.072-11.808 15.024 0 9.984 5.52 17.904 14.736 17.904Zm27.653-12.192v-8.448c0-7.296 0-8.64-.096-10.176-.096-1.632-.48-2.4-2.064-2.736-.384-.096-1.2-.144-1.872-.144-.528 0-.816-.096-.816-.432 0-.336.336-.432 1.056-.432 2.544 0 5.568.144 6.912.144 1.968 0 4.752-.144 6.96-.144 6 0 7.92 1.824 9.024 2.88 1.056 1.056 2.304 2.976 2.304 6.288 0 5.904-4.992 10.896-11.808 10.896-.24 0-.768 0-1.008-.048s-.576-.096-.576-.432c0-.384.336-.528 1.344-.528 2.688 0 6.432-3.072 6.432-7.968 0-1.584 0-4.752-2.688-7.152-1.728-1.584-3.84-1.872-4.944-1.872-.72 0-1.44.048-1.872.192-.24.096-.384.384-.384.912v19.2c0 4.416 0 8.208.24 10.272.144 1.344.432 2.4 1.872 2.592.672.096 1.728.192 2.448.192.528 0 .768.144.768.384 0 .336-.384.48-.912.48-3.168 0-6.192-.144-7.44-.144-1.104 0-4.128.144-6.048.144-.624 0-.96-.144-.96-.48 0-.24.192-.384.768-.384.72 0 1.296-.096 1.728-.192.96-.192 1.2-1.248 1.392-2.64.24-2.016.24-5.808.24-10.224Zm44.535-19.68v19.68c0 4.416 0 8.208.24 10.272.144 1.344.432 2.4 1.872 2.592.672.096 1.728.192 2.448.192.528 0 .768.144.768.384 0 .336-.384.48-.912.48-3.168 0-6.192-.144-7.536-.144-1.104 0-4.128.144-6.048.144-.624 0-.96-.144-.96-.48 0-.24.192-.384.768-.384.72 0 1.296-.096 1.728-.192.96-.192 1.248-1.248 1.392-2.64.24-2.016.24-5.808.24-10.224V4.544c-1.824.048-4.8.144-7.152.192-2.784.096-3.936.336-4.656 1.392-.48.72-.72 1.296-.816 1.68-.096.384-.24.576-.528.576-.336 0-.432-.24-.432-.768 0-.768.912-5.136 1.008-5.52.144-.624.288-.912.576-.912.384 0 .864.48 2.064.576 1.392.144 3.216.24 4.8.24h19.008c1.536 0 2.592-.144 3.312-.24.72-.144 1.104-.24 1.296-.24.336 0 .384.288.384 1.008 0 1.008-.144 4.32-.144 5.568-.048.48-.144.768-.432.768-.384 0-.48-.24-.528-.96 0-.144-.048-.384-.048-.528-.096-1.248-1.392-2.592-5.664-2.688a311.142 311.142 0 0 0-6.048-.144Zm32.074 21.072h-10.704c-.24 0-.336.096-.432.384l-2.592 6.864c-.48 1.2-.72 2.352-.72 2.928 0 .864.432 1.488 1.92 1.488h.72c.576 0 .72.096.72.384 0 .384-.288.48-.816.48-1.536 0-3.6-.144-5.088-.144-.528 0-3.168.144-5.664.144-.624 0-.912-.096-.912-.48 0-.288.288-.384.672-.384.432 0 1.008-.048 1.392-.096 2.208-.288 3.12-1.92 4.08-4.32L120.886 2.72c.576-1.392.912-1.92 1.344-1.92.384 0 .72.432 1.2 1.536 1.152 2.64 8.832 22.224 11.904 29.52 1.824 4.32 3.216 4.992 4.224 5.232.72.144 1.44.192 2.016.192.384 0 .624.096.624.384 0 .384-.432.48-2.208.48-1.728 0-5.568 0-9.408-.096-.864-.048-1.104-.096-1.104-.384 0-.24.192-.384.672-.432.336-.096.672-.528.432-1.104l-3.84-10.176c-.096-.24-.24-.336-.48-.336Zm-9.744-2.4h8.832c.24 0 .288-.144.24-.288l-4.32-11.856c-.144-.432-.336-.576-.528 0l-4.416 11.808c-.048.192 0 .336.192.336Zm63.306-20.928 4.368 29.664c.432 3.024.912 4.416 2.352 4.848 1.392.432 2.352.48 2.976.48.432 0 .768.048.768.336 0 .384-.576.528-1.248.528-1.2 0-7.824-.144-9.744-.288-1.104-.096-1.392-.24-1.392-.528 0-.24.192-.384.528-.528.288-.096.432-.72.24-2.064l-2.928-21.408-10.608 22.08c-1.104 2.256-1.344 2.688-1.776 2.688-.432 0-.912-.96-1.68-2.4-1.152-2.208-4.944-9.552-5.52-10.896-.432-1.008-3.456-7.392-5.136-10.992l-2.544 19.44c-.096.864-.144 1.488-.144 2.256 0 .912.624 1.344 1.44 1.536.864.192 1.536.24 2.016.24.384 0 .72.096.72.336 0 .432-.432.528-1.152.528-2.016 0-4.176-.144-5.04-.144-.912 0-3.216.144-4.752.144-.48 0-.864-.096-.864-.528 0-.24.288-.336.768-.336.384 0 .72 0 1.44-.144 1.344-.288 1.728-2.16 1.968-3.792l4.752-31.296c.144-.816.432-1.248.816-1.248.384 0 .672.24 1.296 1.488l13.104 27.072 13.056-27.408c.384-.768.624-1.152 1.056-1.152.432 0 .72.48.864 1.488Zm32.207 36.528c-13.776 0-19.344-10.32-19.344-18.816 0-8.208 5.424-18.816 19.824-18.816 11.952 0 19.392 6.96 19.392 17.952s-7.68 19.68-19.872 19.68Zm2.016-2.4c3.36 0 11.136-1.632 11.136-15.504 0-10.752-6.192-17.424-14.064-17.424-5.52 0-11.808 3.072-11.808 15.024 0 9.984 5.52 17.904 14.736 17.904Z"/></svg>
